Newaita-dark/actions/32/delete-comment.svg

<svg height="32" viewBox="0 0 32 32" width="32" xmlns="http://www.w3.org/2000/svg"><path d="m15.875 2.902344c-7.261719 0-13.222656 5.585937-13.222656 12.5625 0 1.96875.476562 3.839844 1.324218 5.5l-1.300781 6.824218c-.089843.476563.085938.964844.464844 1.269532.378906.304687.890625.378906 1.339844.1875l5.738281-2.414063c1.71875.765625 3.636719 1.195313 5.65625 1.195313.90625 0 1.792969-.085938 2.648438-.25v-2.691406c-.84375.203124-1.730469.308593-2.648438.308593-1.753906 0-3.398438-.394531-4.847656-1.09375-.375-.261719-.863282-.3125-1.285156-.125l-4.019532 1.691407.863282-4.53125c.015624-.078126.023437-.15625.023437-.234376.101563-.34375.058594-.710937-.121094-1.023437-.769531-1.378906-1.203125-2.941406-1.203125-4.613281 0-5.480469 4.664063-9.929688 10.589844-9.929688 5.929688 0 10.59375 4.449219 10.59375 9.929688 0 1.160156-.210938 2.273437-.59375 3.308594h2.765625c.300781-1.054688.460937-2.160157.460937-3.308594 0-6.976563-5.960937-12.5625-13.226562-12.5625zm0 0" fill="#e0e0e0"/><g fill="#f44336"><path d="m27.042969 29.164062-5.613281-5.613281c-.257813-.257812-.257813-.675781 0-.933593l.933593-.9375c.257813-.257813.679688-.257813.9375 0l5.613281 5.613281c.257813.257812.257813.675781 0 .9375l-.9375.933593c-.257812.257813-.675781.257813-.933593 0zm0 0"/><path d="m21.429688 27.292969 5.613281-5.613281c.257812-.257813.675781-.257813.933593 0l.9375.9375c.257813.257812.257813.675781 0 .933593l-5.613281 5.613281c-.257812.257813-.679687.257813-.9375 0l-.933593-.933593c-.257813-.261719-.257813-.679688 0-.9375zm0 0"/></g></svg>

<svg xmlns="http://www.w3.org/2000/svg" xmlns:xlink="http://www.w3.org/1999/xlink" width="32px" height="32px" viewBox="0 0 32 32" version="1.1">
<g id="surface1">
     <defs>
  <style id="current-color-scheme" type="text/css">
   .ColorScheme-Text { color:#eeeeee; } .ColorScheme-Highlight { color:#424242; }
  </style>
 </defs>
<path style="fill:currentColor" class="ColorScheme-Text" d="M 15.875 2.902344 C 8.613281 2.902344 2.652344 8.488281 2.652344 15.464844 C 2.652344 17.433594 3.128906 19.304688 3.976562 20.964844 L 2.675781 27.789062 C 2.585938 28.265625 2.761719 28.753906 3.140625 29.058594 C 3.519531 29.363281 4.03125 29.4375 4.480469 29.246094 L 10.21875 26.832031 C 11.9375 27.597656 13.855469 28.027344 15.875 28.027344 C 16.78125 28.027344 17.667969 27.941406 18.523438 27.777344 L 18.523438 25.085938 C 17.679688 25.289062 16.792969 25.394531 15.875 25.394531 C 14.121094 25.394531 12.476562 25 11.027344 24.300781 C 10.652344 24.039062 10.164062 23.988281 9.742188 24.175781 L 5.722656 25.867188 L 6.585938 21.335938 C 6.601562 21.257812 6.609375 21.179688 6.609375 21.101562 C 6.710938 20.757812 6.667969 20.390625 6.488281 20.078125 C 5.71875 18.699219 5.285156 17.136719 5.285156 15.464844 C 5.285156 9.984375 9.949219 5.535156 15.875 5.535156 C 21.804688 5.535156 26.46875 9.984375 26.46875 15.464844 C 26.46875 16.625 26.257812 17.738281 25.875 18.773438 L 28.640625 18.773438 C 28.941406 17.71875 29.101562 16.613281 29.101562 15.464844 C 29.101562 8.488281 23.140625 2.902344 15.875 2.902344 Z M 15.875 2.902344 "/>
<path style=" stroke:none;fill-rule:nonzero;fill:rgb(95.686275%,26.274511%,21.176471%);fill-opacity:1;" d="M 27.042969 29.164062 L 21.429688 23.550781 C 21.171875 23.292969 21.171875 22.875 21.429688 22.617188 L 22.363281 21.679688 C 22.621094 21.421875 23.042969 21.421875 23.300781 21.679688 L 28.914062 27.292969 C 29.171875 27.550781 29.171875 27.96875 28.914062 28.230469 L 27.976562 29.164062 C 27.71875 29.421875 27.300781 29.421875 27.042969 29.164062 Z M 27.042969 29.164062 "/>
<path style=" stroke:none;fill-rule:nonzero;fill:rgb(95.686275%,26.274511%,21.176471%);fill-opacity:1;" d="M 21.429688 27.292969 L 27.042969 21.679688 C 27.300781 21.421875 27.71875 21.421875 27.976562 21.679688 L 28.914062 22.617188 C 29.171875 22.875 29.171875 23.292969 28.914062 23.550781 L 23.300781 29.164062 C 23.042969 29.421875 22.621094 29.421875 22.363281 29.164062 L 21.429688 28.230469 C 21.171875 27.96875 21.171875 27.550781 21.429688 27.292969 Z M 21.429688 27.292969 "/>
</g>
</svg>
